X: 64
T:The Humours of Darowen
M:9/8
L:1/8
Q:120
S:Mary Richards' (1787-1877) Collection
R:Slip Jig
A:Wales
Z:brian_martin12345@yahoo.com
K:D
A|Bcd ded d2A|Bcd def g3|g2G GAG Bcd|e2dc2BA2:||!
g|f2d def g3|f2d dedd2g|g2G GAG Bcd|e2dc2BA2:||
